X:1
T:Cooley's Reel
R:reel
M:4/4
L:1/8
K:Em
|:D2|EBBA B2 EB|B2 AB dBAG|FDAD BDAD|FDAD dAFD|
EBBA B2 EB|B2 AB defg|afec dBAF|DEFD E2:|
|:gf|eB B2 efge|eB B2 BABc|dB B2 defa|dB B2 BABc|
eB B2 efge|eB B2 defg|afec dBAF|DEFD E2:|
